X:90
T:Reel 90
M:4/4
K:Amaj
L:1/8
AF|EA,CA, EA, (3CB,A, |EA,CA, B,A,G,2|EA,CA, EACD|EDCB, A,2 (3A,A,A, |EA,CA, B,A,EC|DB,CA, B,A, (3B,CB, |EAGE FDED|CDB,C A,2|EG|A2cA  (3AGA EC|DCB,C DEFG|A2GA FAEC|DEFG A2E2|ABcA GAGE|FEFG AECA| (3cBA  (3AGF  (3EFE  (3DCB, |CA,B,G, A,2|
